libs/ui/packages/crypto-icons/src/svg/CRO.svg

<svg width="24" height="24" viewBox="0 0 24 24" fill="none" xmlns="http://www.w3.org/2000/svg">
<path d="M11.9999 2L3.5 7.01119V16.9888L11.9999 22L20.4997 16.9888V7.01119L11.9999 2ZM17.9894 15.5123L11.9999 19.0022L6.01032 15.5123V8.4877L11.9999 4.95302L17.9894 8.4877V15.5123Z" fill="#002D74"/>
<path d="M11.9999 4.95302V2L3.5 7.01119V16.9888L11.9999 22V19.0022L6.01032 15.5123V8.4877L11.9999 4.95302Z" fill="#002D74"/>
<path d="M11.9999 19.0022L12.0001 21.9553L20.5 16.9441L20.4997 7.01119L11.9999 2V4.95302L17.9897 8.44295V15.4676L11.9999 19.0022Z" fill="#002D74"/>
<path d="M16.0081 14.3039L12.0004 16.6305L8.03671 14.3039V9.65061L12.0004 7.32399L16.0081 9.65061V14.3039Z" fill="#002D74"/>
</svg>

<svg xmlns="http://www.w3.org/2000/svg" width="24" height="24" viewBox="0 0 24 24" fill="none"><path fill="#002d74" d="M12 2 3.5 7.011v9.978L12 22l8.5-5.011V7.01zm5.99 13.512L12 19.002l-5.99-3.49V8.488L12 4.953l5.99 3.535z"/><path fill="#002d74" d="M12 4.953V2L3.5 7.011v9.978L12 22v-2.998l-5.99-3.49V8.488zm0 14.049v2.953l8.5-5.01V7.01L12 2v2.953l5.99 3.49v7.025z"/><path fill="#002d74" d="M16.008 14.304 12 16.63l-3.963-2.327V9.65L12 7.324l4.008 2.327z"/></svg>
